ico/personal_finance.svg

<svg width="40" height="50" viewBox="0 0 40 50" fill="none" xmlns="http://www.w3.org/2000/svg">
<path fill-rule="evenodd" clip-rule="evenodd" d="M26.9937 3.37948L23.8907 12.4234H6.21774L3.11436 3.37948L8.25733 0L11.6558 2.23339L15.0542 0L18.4526 2.23339L21.8511 0L26.9937 3.37948ZM6.80102 15.3364H23.3074V18.2494H6.80102V15.3364ZM21.9482 32.2311H29.3518C29.199 31.8041 29.0242 31.3816 28.8258 30.9652L24.1577 21.1624H5.95075L1.28259 30.9652C-0.662569 35.0501 -0.381926 39.7732 2.03388 43.5987C4.44931 47.4245 8.59259 49.7087 13.1174 49.7087H16.991C17.6805 49.7087 18.3635 49.6549 19.0352 49.5513V40.9701H21.9482V32.2311ZM18.6631 36.8852C18.4796 37.258 18.238 37.5637 17.9384 37.8015C17.6388 38.0397 17.2967 38.2194 16.9121 38.3408C16.5276 38.4618 16.1294 38.5361 15.7179 38.563V40.1934H14.645V38.5361C14.0276 38.4823 13.4147 38.3609 12.8068 38.1724C12.1985 37.9835 11.6531 37.7458 11.1703 37.4579L12.2971 35.154C12.5387 35.3068 12.7981 35.4505 13.0753 35.5852C13.3078 35.702 13.5782 35.8165 13.8869 35.9288C14.1956 36.0414 14.5107 36.1195 14.8327 36.1643V34.9788C14.5555 34.9071 14.2783 34.8218 14.001 34.7228C13.5805 34.579 13.2183 34.4243 12.9145 34.2578C12.6103 34.0917 12.3597 33.9032 12.1632 33.692C11.9664 33.4811 11.8211 33.2407 11.7271 32.9714C11.633 32.7018 11.586 32.3919 11.586 32.0415C11.586 31.5564 11.6668 31.1275 11.8276 30.7547C11.9888 30.3823 12.2076 30.0607 12.4848 29.7914C12.762 29.5218 13.0863 29.3064 13.4576 29.1444C13.8289 28.9829 14.2244 28.8797 14.645 28.8346V27.4738H15.7183V28.8482C16.0133 28.8839 16.2993 28.9381 16.5769 29.0102C16.8541 29.0818 17.12 29.1649 17.3752 29.2589C17.6301 29.3534 17.8694 29.4524 18.0927 29.5555C18.3165 29.6591 18.522 29.7558 18.7102 29.8453L17.583 32.0146C17.3862 31.889 17.1715 31.7722 16.9391 31.6641C16.7422 31.5655 16.5208 31.4734 16.275 31.388C16.0289 31.3027 15.7808 31.2379 15.5302 31.1927V32.4052C15.6109 32.4238 15.6959 32.448 15.7854 32.4795C15.8745 32.511 15.9686 32.5402 16.0672 32.5671C16.5052 32.7018 16.9008 32.85 17.2542 33.0116C17.6077 33.1735 17.9096 33.3643 18.1599 33.5843C18.4102 33.8046 18.6028 34.072 18.7367 34.386C18.871 34.7008 18.9381 35.0823 18.9381 35.5317C18.9381 36.0615 18.8463 36.5128 18.6631 36.8852ZM14.2961 31.6099C14.2961 31.7449 14.3408 31.8549 14.4303 31.9402C14.5198 32.0259 14.6537 32.1044 14.8327 32.1761V31.1522C14.4751 31.1969 14.2961 31.3497 14.2961 31.6099ZM15.5302 35.2078V36.2049C15.7452 36.187 15.8969 36.1419 15.9864 36.0702C16.0759 35.9982 16.1207 35.9041 16.1207 35.7873C16.1207 35.6614 16.0672 35.5514 15.9595 35.457C15.8521 35.3629 15.7092 35.2799 15.5302 35.2078ZM24.8612 35.1441H39.9109V40.9701H24.8612V35.1441ZM36.9982 43.8827H21.9482V49.7087H36.9982V43.8827Z" fill="white"/>
</svg>

<svg width="40" height="50" fill="none" xmlns="http://www.w3.org/2000/svg"><path fill-rule="evenodd" clip-rule="evenodd" d="m26.994 3.38-3.103 9.043H6.218L3.114 3.38 8.257 0l3.399 2.233L15.054 0l3.399 2.233L21.85 0l5.143 3.38ZM6.8 15.335h16.506v2.913H6.801v-2.913Zm15.147 16.895h7.404c-.153-.427-.328-.85-.526-1.266l-4.668-9.803H5.95l-4.668 9.803a13.04 13.04 0 0 0 .75 12.634 13.04 13.04 0 0 0 11.084 6.11h3.874c.69 0 1.372-.054 2.044-.158v-8.58h2.913v-8.74Zm-3.285 4.654a2.634 2.634 0 0 1-.725.916 3.16 3.16 0 0 1-1.026.54 5.065 5.065 0 0 1-1.194.222v1.63h-1.073v-1.657a8.76 8.76 0 0 1-1.838-.364 7.56 7.56 0 0 1-1.637-.714l1.127-2.304c.242.153.501.296.778.431.233.117.503.231.812.344.309.112.624.19.946.235V34.98a9.69 9.69 0 0 1-.832-.256 6.957 6.957 0 0 1-1.086-.465 2.937 2.937 0 0 1-.752-.566 2.023 2.023 0 0 1-.436-.72 2.816 2.816 0 0 1-.141-.93c0-.486.08-.915.242-1.287.16-.373.38-.694.657-.964s.601-.485.973-.647a4.036 4.036 0 0 1 1.187-.31v-1.36h1.073v1.374c.295.036.581.09.859.162.277.072.543.155.798.249s.494.193.718.296c.224.104.429.2.617.29l-1.127 2.17a5.534 5.534 0 0 0-.644-.35 5.565 5.565 0 0 0-.664-.277 4.957 4.957 0 0 0-.745-.195v1.212c.08.019.166.043.255.075.09.031.184.06.282.087.438.135.834.283 1.187.445.354.161.656.352.906.572.25.22.443.488.577.802.134.315.201.696.201 1.146 0 .53-.092.98-.275 1.353Zm-4.367-5.275c0 .135.045.245.134.33.09.086.224.164.403.236v-1.024c-.358.045-.537.198-.537.458Zm1.234 3.598v.997c.215-.018.367-.063.456-.135a.345.345 0 0 0 .135-.283.427.427 0 0 0-.161-.33 1.496 1.496 0 0 0-.43-.25Zm9.331-.064h15.05v5.826H24.86v-5.826Zm12.137 8.739h-15.05v5.826h15.05v-5.826Z" fill="#fff"/></svg>
